src/assets/icons/cars/crappy_car.svg

<svg width="48" height="48" viewBox="0 0 48 48" fill="none" xmlns="http://www.w3.org/2000/svg">
<g id="Icons / Vertical Cars / Car state crappy">
<g id="Vector">
<path fill-rule="evenodd" clip-rule="evenodd" d="M38 31.1416C38 31.5586 37.651 31.9996 37.322 31.9996H35.479C34.939 30.8346 33.766 30.0196 32.4 30.0196C30.669 30.0196 29.252 31.3256 29.042 32.9996H21V30.9996C21 30.4476 20.552 29.9996 20 29.9996C19.448 29.9996 19 30.4476 19 30.9996V33.4196C19 33.8616 18.441 34.2206 18 34.2206C17.559 34.2206 17 33.8616 17 33.4196V31.0196C17 30.4676 16.652 30.0196 16.1 30.0196C15.548 30.0196 15.15 30.4676 15.15 31.0196C15.15 31.4606 15.016 31.8196 14.575 31.8196C14.134 31.8196 14 31.4606 14 31.0196V27.9996C14 27.4476 13.552 26.9996 13 26.9996C12.448 26.9996 12 27.4476 12 27.9996V32.2206C12 32.6616 11.441 33.0196 11 33.0196C10.559 33.0196 10 32.6616 10 32.2206V17.8196C10 17.3786 10.559 17.0196 11 17.0196C11.441 17.0196 12 17.3786 12 17.8196V20.9996C12 21.5526 12.448 21.9996 13 21.9996C13.552 21.9996 14 21.5526 14 20.9996V19.6206C14 19.1786 14.059 18.8196 14.5 18.8196C14.941 18.8196 15 19.1786 15 19.6206V22.0196C15 22.5726 15.448 23.0196 16 23.0196C16.552 23.0196 17 22.5726 17 22.0196V17.8196C17 17.3786 17.559 17.0196 18 17.0196C18.441 17.0196 19 17.3786 19 17.8196V19.9996C19 20.5526 19.448 20.9996 20 20.9996C20.552 20.9996 21 20.5526 21 19.9996V17.9996H27.03C27.402 17.9996 27.835 18.2486 28.156 18.6446L30.842 21.9996H30C29.448 21.9996 29 22.4476 29 22.9996C29 23.5526 29.448 23.9996 30 23.9996H32.904C32.93 24.0096 32.951 24.0246 32.978 24.0336L37.253 25.4726C37.693 25.6196 38 26.0506 38 26.5216V31.1416ZM32.4 34.8196C31.628 34.8196 31 34.1916 31 33.4196C31 32.6476 31.628 32.0196 32.4 32.0196C33.172 32.0196 33.8 32.6476 33.8 33.4196C33.8 34.1916 33.172 34.8196 32.4 34.8196ZM37.889 23.5766L33.612 22.1366C33.565 22.1206 33.496 22.0786 33.435 22.0386L29.714 17.3906C29.009 16.5196 28.005 15.9996 27.03 15.9996H20.11C19.596 15.4046 18.846 15.0196 18 15.0196C16.746 15.0196 15.694 15.8546 15.339 16.9936C15.044 16.8876 14.731 16.8196 14.4 16.8196C14.069 16.8196 13.756 16.8876 13.461 16.9936C13.106 15.8546 12.054 15.0196 10.8 15.0196C9.256 15.0196 8 16.2756 8 17.8196V32.2206C8 33.7646 9.256 35.0196 10.8 35.0196C11.855 35.0196 12.765 34.4266 13.242 33.5616C13.596 33.7236 13.986 33.8196 14.4 33.8196C14.69 33.8196 14.964 33.7626 15.227 33.6806C15.361 35.1016 16.545 36.2206 18 36.2206C18.958 36.2206 19.803 35.7356 20.308 34.9996H29.408C29.979 36.0766 31.099 36.8196 32.4 36.8196C34.076 36.8196 35.464 35.5976 35.741 33.9996H37.322C38.749 33.9996 40 32.6636 40 31.1416V26.5216C40 25.1816 39.15 23.9966 37.889 23.5766Z" fill="#253238"/>
<path fill-rule="evenodd" clip-rule="evenodd" d="M18 38H17C16.448 38 16 38.448 16 39C16 39.552 16.448 40 17 40H18C18.552 40 19 39.552 19 39C19 38.448 18.552 38 18 38Z" fill="#253238"/>
<path fill-rule="evenodd" clip-rule="evenodd" d="M13 36H12C11.448 36 11 36.448 11 37C11 37.552 11.448 38 12 38H13C13.552 38 14 37.552 14 37C14 36.448 13.552 36 13 36Z" fill="#253238"/>
<path fill-rule="evenodd" clip-rule="evenodd" d="M24 37H23C22.448 37 22 37.448 22 38C22 38.552 22.448 39 23 39H24C24.552 39 25 38.552 25 38C25 37.448 24.552 37 24 37Z" fill="#253238"/>
<path fill-rule="evenodd" clip-rule="evenodd" d="M31.3413 15.0024C31.8393 15.4384 32.0003 15.6114 32.0003 16.0004C32.0003 16.5524 32.4473 17.0004 33.0003 17.0004C33.5523 17.0004 34.0003 16.5524 34.0003 16.0004C34.0003 14.6714 33.1933 13.9644 32.6583 13.4974C32.1603 13.0624 32.0003 12.8884 32.0003 12.5004C32.0003 12.1114 32.1603 11.9384 32.6583 11.5024C33.1933 11.0354 34.0003 10.3284 34.0003 9.00037C34.0003 8.44737 33.5523 8.00037 33.0003 8.00037C32.4473 8.00037 32.0003 8.44737 32.0003 9.00037C32.0003 9.38837 31.8393 9.56237 31.3413 9.99737C30.8073 10.4644 30.0003 11.1714 30.0003 12.5004C30.0003 13.8284 30.8073 14.5354 31.3413 15.0024Z" fill="#253238"/>
<path fill-rule="evenodd" clip-rule="evenodd" d="M38.6587 16.4976C38.1607 16.0616 37.9997 15.8886 37.9997 15.4996C37.9997 15.1116 38.1607 14.9376 38.6587 14.5026C39.1927 14.0356 39.9997 13.3286 39.9997 11.9996C39.9997 11.4476 39.5527 10.9996 38.9997 10.9996C38.4477 10.9996 37.9997 11.4476 37.9997 11.9996C37.9997 12.3886 37.8397 12.5616 37.3417 12.9976C36.8067 13.4646 35.9997 14.1716 35.9997 15.4996C35.9997 16.8286 36.8067 17.5356 37.3417 18.0026C37.8397 18.4376 37.9997 18.6116 37.9997 18.9996C37.9997 19.5526 38.4477 19.9996 38.9997 19.9996C39.5527 19.9996 39.9997 19.5526 39.9997 18.9996C39.9997 17.6716 39.1927 16.9646 38.6587 16.4976Z" fill="#253238"/>
</g>
</g>
</svg>

<svg width="48" height="48" viewBox="0 0 48 48" fill="none" xmlns="http://www.w3.org/2000/svg"><g fill-rule="evenodd" clip-rule="evenodd" fill="#253238"><path d="M38 31.142c0 .417-.349.858-.678.858h-1.843a3.398 3.398 0 00-3.079-1.98c-1.731 0-3.148 1.306-3.358 2.98H21v-2a1 1 0 00-2 0v2.42c0 .442-.559.8-1 .8-.441 0-1-.358-1-.8v-2.4c0-.552-.348-1-.9-1s-.95.448-.95 1c0 .44-.134.8-.575.8-.441 0-.575-.36-.575-.8V28a1 1 0 00-2 0v4.22c0 .442-.559.8-1 .8-.441 0-1-.358-1-.8v-14.4c0-.441.559-.8 1-.8.441 0 1 .359 1 .8V21a1 1 0 102 0v-1.38c0-.441.059-.8.5-.8s.5.359.5.8v2.4a1 1 0 102 0v-4.2c0-.441.559-.8 1-.8.441 0 1 .359 1 .8V20a1 1 0 102 0v-2h6.03c.372 0 .805.249 1.126.645L30.842 22H30a1 1 0 000 2h2.904c.026.01.047.025.074.034l4.275 1.439c.44.147.747.578.747 1.049v4.62zm-5.6 3.678c-.772 0-1.4-.628-1.4-1.4 0-.772.628-1.4 1.4-1.4.772 0 1.4.628 1.4 1.4 0 .772-.628 1.4-1.4 1.4zm5.489-11.243l-4.277-1.44a.955.955 0 01-.177-.098l-3.721-4.648C29.009 16.52 28.005 16 27.03 16h-6.92a2.782 2.782 0 00-2.11-.98 2.795 2.795 0 00-2.661 1.974 2.764 2.764 0 00-.939-.174c-.331 0-.644.068-.939.174A2.795 2.795 0 0010.8 15.02a2.803 2.803 0 00-2.8 2.8v14.4a2.802 2.802 0 002.8 2.8 2.79 2.79 0 002.442-1.458c.354.162.744.258 1.158.258.29 0 .564-.057.827-.14A2.793 2.793 0 0018 36.22c.958 0 1.803-.484 2.308-1.22h9.1a3.39 3.39 0 002.992 1.82A3.399 3.399 0 0035.741 34h1.581C38.749 34 40 32.664 40 31.142v-4.62c0-1.34-.85-2.525-2.111-2.945zM18 38h-1a1 1 0 000 2h1a1 1 0 000-2zM13 36h-1a1 1 0 000 2h1a1 1 0 000-2zM24 37h-1a1 1 0 000 2h1a1 1 0 000-2zM31.341 15.002c.498.436.66.61.66.998a1 1 0 102 0c0-1.329-.808-2.036-1.343-2.503-.498-.435-.658-.609-.658-.997 0-.389.16-.562.658-.998C33.193 11.035 34 10.328 34 9a1 1 0 10-2 0c0 .388-.16.562-.659.997-.534.467-1.34 1.174-1.34 2.503 0 1.328.806 2.035 1.34 2.502zM38.659 16.498c-.498-.436-.66-.61-.66-.998s.162-.562.66-.997c.534-.467 1.34-1.174 1.34-2.503a1 1 0 10-2 0c0 .389-.16.562-.657.998C36.807 13.465 36 14.172 36 15.5c0 1.329.807 2.036 1.342 2.503.498.435.658.609.658.997a1 1 0 102 0c0-1.328-.807-2.035-1.341-2.502z"/></g></svg>
